src/Assets/icons/linkedln-light.svg

<svg width="16" height="16" viewBox="0 0 16 16" fill="none" xmlns="http://www.w3.org/2000/svg">
<path d="M14.8156 0H1.18125C0.528125 0 0 0.515625 0 1.15313V14.8438C0 15.4813 0.528125 16 1.18125 16H14.8156C15.4688 16 16 15.4813 16 14.8469V1.15313C16 0.515625 15.4688 0 14.8156 0ZM4.74687 13.6344H2.37188V5.99687H4.74687V13.6344ZM3.55938 4.95625C2.79688 4.95625 2.18125 4.34062 2.18125 3.58125C2.18125 2.82188 2.79688 2.20625 3.55938 2.20625C4.31875 2.20625 4.93437 2.82188 4.93437 3.58125C4.93437 4.3375 4.31875 4.95625 3.55938 4.95625ZM13.6344 13.6344H11.2625V9.92188C11.2625 9.0375 11.2469 7.89687 10.0281 7.89687C8.79375 7.89687 8.60625 8.8625 8.60625 9.85938V13.6344H6.2375V5.99687H8.5125V7.04063H8.54375C8.85938 6.44063 9.63438 5.80625 10.7875 5.80625C13.1906 5.80625 13.6344 7.3875 13.6344 9.44375V13.6344Z" fill="white"/>
</svg>

<svg xmlns="http://www.w3.org/2000/svg" width="16" height="16" fill="none" xmlns:v="https://vecta.io/nano"><path d="M14.816 0H1.181C.528 0 0 .516 0 1.153v13.691C0 15.481.528 16 1.181 16h13.634c.653 0 1.184-.519 1.184-1.153V1.153C16 .516 15.469 0 14.816 0zM4.747 13.634H2.372V5.997h2.375v7.638zM3.559 4.956c-.763 0-1.378-.616-1.378-1.375s.616-1.375 1.378-1.375 1.375.616 1.375 1.375-.616 1.375-1.375 1.375zm10.075 8.678h-2.372V9.922c0-.884-.016-2.025-1.234-2.025-1.234 0-1.422.966-1.422 1.963v3.775H6.238V5.997h2.275v1.044h.031c.316-.6 1.091-1.234 2.244-1.234 2.403 0 2.847 1.581 2.847 3.637v4.191z" fill="#fff"/></svg>
